Newaita-dark/actions/32/view-close.svg

<svg height="32" viewBox="0 0 32 32" width="32" xmlns="http://www.w3.org/2000/svg"><path d="m2.644531 5.542969c0-1.464844 1.183594-2.648438 2.648438-2.648438h21.167969c1.464843 0 2.644531 1.183594 2.644531 2.648438v12.566406h-2.644531v-5.953125h-21.167969v13.230469c0 .734375.589843 1.324219 1.320312 1.324219h11.246094v2.644531h-12.566406c-1.464844 0-2.648438-1.179688-2.648438-2.644531zm2.648438 1.320312v3.972657h21.167969v-3.972657c0-.730469-.589844-1.320312-1.324219-1.320312h-18.523438c-.730469 0-1.320312.589843-1.320312 1.320312zm0 0" fill="#e0e0e0"/><g fill="#f44336"><path d="m28.914062 28.226562-.9375.9375c-.257812.257813-.675781.257813-.933593 0l-6.550781-6.550781c-.257813-.257812-.257813-.675781 0-.933593l.9375-.9375c.257812-.257813.675781-.257813.933593 0l6.550781 6.550781c.257813.257812.257813.675781 0 .933593zm0 0"/><path d="m21.429688 29.164062-.9375-.9375c-.257813-.257812-.257813-.675781 0-.933593l6.550781-6.550781c.257812-.257813.675781-.257813.933593 0l.9375.9375c.257813.257812.257813.675781 0 .933593l-6.550781 6.550781c-.257812.257813-.675781.257813-.933593 0zm0 0"/></g></svg>

<?xml version="1.0" encoding="UTF-8"?>
<svg xmlns="http://www.w3.org/2000/svg" xmlns:xlink="http://www.w3.org/1999/xlink" width="32px" height="32px" viewBox="0 0 32 32" version="1.1">
<g id="surface1">
<path style=" stroke:none;fill-rule:nonzero;fill:rgb(87.843138%,87.843138%,87.843138%);fill-opacity:1;" d="M 2.644531 5.542969 C 2.644531 4.078125 3.828125 2.894531 5.292969 2.894531 L 26.460938 2.894531 C 27.925781 2.894531 29.105469 4.078125 29.105469 5.542969 L 29.105469 18.109375 L 26.460938 18.109375 L 26.460938 12.15625 L 5.292969 12.15625 L 5.292969 25.386719 C 5.292969 26.121094 5.882812 26.710938 6.613281 26.710938 L 17.859375 26.710938 L 17.859375 29.355469 L 5.292969 29.355469 C 3.828125 29.355469 2.644531 28.175781 2.644531 26.710938 Z M 5.292969 6.863281 L 5.292969 10.835938 L 26.460938 10.835938 L 26.460938 6.863281 C 26.460938 6.132812 25.871094 5.542969 25.136719 5.542969 L 6.613281 5.542969 C 5.882812 5.542969 5.292969 6.132812 5.292969 6.863281 Z M 5.292969 6.863281 "/>
<path style=" stroke:none;fill-rule:nonzero;fill:rgb(95.686275%,26.274511%,21.176471%);fill-opacity:1;" d="M 28.914062 28.226562 L 27.976562 29.164062 C 27.71875 29.421875 27.300781 29.421875 27.042969 29.164062 L 20.492188 22.613281 C 20.234375 22.355469 20.234375 21.9375 20.492188 21.679688 L 21.429688 20.742188 C 21.6875 20.484375 22.105469 20.484375 22.363281 20.742188 L 28.914062 27.292969 C 29.171875 27.550781 29.171875 27.96875 28.914062 28.226562 Z M 28.914062 28.226562 "/>
<path style=" stroke:none;fill-rule:nonzero;fill:rgb(95.686275%,26.274511%,21.176471%);fill-opacity:1;" d="M 21.429688 29.164062 L 20.492188 28.226562 C 20.234375 27.96875 20.234375 27.550781 20.492188 27.292969 L 27.042969 20.742188 C 27.300781 20.484375 27.71875 20.484375 27.976562 20.742188 L 28.914062 21.679688 C 29.171875 21.9375 29.171875 22.355469 28.914062 22.613281 L 22.363281 29.164062 C 22.105469 29.421875 21.6875 29.421875 21.429688 29.164062 Z M 21.429688 29.164062 "/>
</g>
</svg>
